X: 2364
M: C
L: 1/8
K: A
uE2 !segno!|:\
vA2ce agfe | dcBA GBE2 |\
|: (A/B/c/d/) |:\
e2ce zce2 | f2df zdf2 |\
[1,3 e2ce zce2 | B2GB zGB2 :|\
[2,4 Aceg agae | fdBG A2 !segno!:|


